X:40
T:Lads And Lasses. Le4.040
B:L.Leadley MS#4 c1850
Z:Village Music Project, 2016 Steve Mansfield
M:2/4
L:1/8
Q:2/4=75
K:G
g | dB BG | FA Ac | BG Bd | g2 fe |dB BG | FA Ac | EG FA | G3 :|
|: G | g2 gb | agfe | g2 gb | af d2 |\
g2 gb | afed | eg fa | gg g :|

